X: 21262
M: 6/8
L: 1/8
K: D
V: 1 name="2"
(Ad)d d2c | c3 B3 | A2A ABG | G3 FG^G |\
(Ad)d d2c | (Bg) g2a | (gf)d fec | (e3 d2) H|]
age (gfd) | (ag)e (gf)d | (fe)c (ed)B | B3 "^D.C."A2 |]


